X:1
T:Mary Magdalene (Sullivan), 77.77 D
T:Arthur Seymour Sullivan, 1872
T:Mary Magdalene (Sullivan), 77.77 D
T:Public Domain
C:Arthur Seymour Sullivan, 1872
Z:Public Domain
%%score ( 1 2 ) ( 3 4 )
L:1/8
M:4/4
K:Eb
V:1 treble 
V:2 treble 
V:3 bass 
V:4 bass 
V:1
 [EG]2 [EG]2 [DF]2 E2 | [DB]3 [Dc] [EB]4 | [EA]2 [EA]2 [FA]2 [EG]2 | [EF]3 [EG] [DF]4 | %4
 [FA]2 [FA]2 [=EG]2 F2 | [=Ec]3 [E_d] [Fc]4 | [GB]2 [FA]2 [EG]2 [Gc]2 | [Gc]2 [G=B]2 [Gc]4 | %8
 [Ae]2 [G_d]2 [Ac]2 [GB]2 | A2 [GB]2 [Ac]4 | [Ec]2 [=EB]2 [FA]2 [EG]2 | F2 [EG]2 [DA]4 | %12
 [EG]2 [EG]2 [DF]2 E2 | [DB]3 [Dc] [EB]4 | [FA]2 [EG]2 [_DF]2 [CE]2 x | [B,E]4 [B,D]4 | [B,E]8 |] %17
V:2
 x6 E2 | x8 | x8 | x8 | x6 F2 | x8 | x8 | x8 | x8 | A2 x6 | x8 | F2 x6 | x6 E2 | x8 | x9 | x8 | %16
 x8 |] %17
V:3
 [E,B,]2 [E,B,]2 [F,B,]2 [G,B,]2 | [A,B,]3 [A,B,] [G,B,]4 | [C,C]2 [C,C]2 [D,B,]2 [D,B,]2 | %3
 [F,=A,]3 [F,A,] [B,,B,]4 | [F,C]2 [F,C]2 [G,C]2 [A,C]2 | [B,C]3 [B,C] [A,C]4 | %6
 [=E,C]2 [F,C]2 [G,C]2 [G,=E]2 | [G,D]2 [G,D]2 [C,E]4 | [CE]2 [B,E]2 [A,E]2 [E,E]2 | %9
 [C,E]2 [E,E]2 [A,E]4 | [A,C]2 [G,C]2 [F,C]2 [C,C]2 | [A,C]2 [G,C]2 [F,B,]4 | %12
 [E,B,]2 [E,B,]2 [F,B,]2 [G,B,]2 | [A,B,]3 [A,B,] [G,B,]4 | [F,C]2 [C,C]2 _D,2 z G, x | %15
 F,2 E,2 [B,,F,]4 | [E,G,]8 |] %17
V:4
 x8 | x8 | x8 | x8 | x8 | x8 | x8 | x8 | x8 | x8 | x8 | x8 | x8 | x8 | x4 A,3 A,,2 | B,,4 x4 | %16
 x8 |] %17

